resources/haticons/SVG/aspect_ratio.svg

<!-- Generated by IcoMoon.io -->
<svg version="1.1" xmlns="http://www.w3.org/2000/svg" width="24" height="24" viewBox="0 0 24 24">
<title>aspect_ratio</title>
<path d="M21 19.031v-14.063h-18v14.063h18zM21 3q0.797 0 1.406 0.609t0.609 1.406v13.969q0 0.797-0.609 1.406t-1.406 0.609h-18q-0.797 0-1.406-0.609t-0.609-1.406v-13.969q0-0.797 0.609-1.406t1.406-0.609h18zM6.984 9v3h-1.969v-5.016h4.969v2.016h-3zM18.984 12v5.016h-4.969v-2.016h3v-3h1.969z"></path>
</svg>

<svg xmlns="http://www.w3.org/2000/svg" width="24" height="24"><path d="M21 19.031V4.968H3v14.063h18zM21 3q.797 0 1.406.609t.609 1.406v13.969q0 .797-.609 1.406T21 20.999H3q-.797 0-1.406-.609t-.609-1.406V5.015q0-.797.609-1.406T3 3h18zM6.984 9v3H5.015V6.984h4.969V9h-3zm12 3v5.016h-4.969V15h3v-3h1.969z"/></svg>
